Catalina-dark/actions/22/filename-discnumber-amarok.svg

<svg xmlns="http://www.w3.org/2000/svg" viewBox="0 0 22 22">
  <defs id="defs3051">
    <style type="text/css" id="current-color-scheme">
      .ColorScheme-Text {
        color:#f2f2f2
      }
      </style>
  </defs>
 <path 
     style="fill:currentColor;fill-opacity:1;stroke:none"      
	 class="ColorScheme-Text"
        d="M 11 3 C 6.568 3 3 6.568 3 11 C 3 15.432 6.568 19 11 19 C 15.432 19 19 15.432 19 11 C 19 6.568 15.432 3 11 3 z M 15.345703 8.5 C 15.395172 8.5 15.448565 8.5034828 15.503906 8.5097656 L 15.505859 8.5097656 C 16.256528 8.5732373 16.78776 8.8280672 17.083984 9.2675781 C 17.413238 9.7560787 17.367339 10.352166 17.310547 10.664062 C 17.305428 10.692205 17.282076 10.713754 17.253906 10.71875 C 17.225627 10.723787 17.198076 10.71218 17.183594 10.6875 C 17.124653 10.586934 17.025552 10.434036 16.882812 10.28125 C 16.536531 9.9106313 16.105029 9.7148438 15.636719 9.7148438 C 15.597762 9.7148437 15.557452 9.7160808 15.517578 9.71875 L 15.517578 12.488281 C 15.517578 13.001639 15.132729 13.42319 14.601562 13.490234 C 14.553394 13.496298 14.505145 13.5 14.457031 13.5 C 13.944604 13.5 13.513075 13.152951 13.455078 12.693359 C 13.423828 12.445797 13.501618 12.199572 13.673828 12 C 13.846024 11.800428 14.092426 11.671391 14.367188 11.636719 C 14.524861 11.616803 14.68514 11.630925 14.833984 11.675781 L 14.833984 8.8515625 C 14.833984 8.6893449 14.967255 8.5 15.345703 8.5 z M 5.9394531 9 C 6.1529829 9 6.328125 9.173205 6.328125 9.3867188 L 6.328125 9.7753906 L 7.2265625 9.7753906 L 7.2265625 9.3867188 C 7.2265625 9.173205 7.3996394 9 7.6132812 9 C 7.826795 9 8.0019531 9.173205 8.0019531 9.3867188 L 8.0019531 9.7753906 L 8.390625 9.7753906 C 8.6041067 9.7753906 8.7773438 9.9504367 8.7773438 10.164062 C 8.7773437 10.377576 8.6040907 10.550781 8.390625 10.550781 L 8.0019531 10.550781 L 8.0019531 11.449219 L 8.390625 11.449219 C 8.6041708 11.449219 8.7773438 11.622456 8.7773438 11.835938 C 8.7773437 12.049419 8.6041868 12.224609 8.390625 12.224609 L 8.0019531 12.224609 L 8.0019531 12.613281 C 8.0019531 12.826923 7.826875 13 7.6132812 13 C 7.3997995 13 7.2265625 12.826923 7.2265625 12.613281 L 7.2265625 12.224609 L 6.328125 12.224609 L 6.328125 12.613281 C 6.328125 12.826923 6.1529829 13 5.9394531 13 C 5.7258433 13 5.5527344 12.826923 5.5527344 12.613281 L 5.5527344 12.224609 L 5.1640625 12.224609 C 4.9505328 12.224609 4.7773438 12.049419 4.7773438 11.835938 C 4.7773437 11.622456 4.9505328 11.449219 5.1640625 11.449219 L 5.5527344 11.449219 L 5.5527344 10.550781 L 5.1640625 10.550781 C 4.9505328 10.550781 4.7773438 10.377576 4.7773438 10.164062 C 4.7773437 9.9504527 4.9505328 9.7753906 5.1640625 9.7753906 L 5.5527344 9.7753906 L 5.5527344 9.3867188 C 5.5527344 9.173205 5.7258433 9 5.9394531 9 z M 11 10 C 11.553999 10 12 10.446001 12 11 C 12 11.553999 11.553999 12 11 12 C 10.446001 12 10 11.553999 10 11 C 10 10.446001 10.446001 10 11 10 z "
     />
</svg>

<svg width="22" height="22" viewBox="3 3 16 16" xmlns="http://www.w3.org/2000/svg">
<defs>
<style id="current-color-scheme" type="text/css">.ColorScheme-Text {
        color:#f2f2f2
      }</style>
</defs>
<path class="ColorScheme-Text" d="m11 3c-4.432 0-8 3.568-8 8s3.568 8 8 8 8-3.568 8-8-3.568-8-8-8zm4.3457 5.5c0.049469 0 0.10286 0.0034828 0.1582 0.0097656h0.001953c0.75067 0.063472 1.2819 0.3183 1.5781 0.75781 0.32925 0.4885 0.28336 1.0846 0.22656 1.3965-0.005119 0.028143-0.028471 0.049692-0.056641 0.054688-0.028279 0.005037-0.05583-0.00657-0.070312-0.03125-0.058941-0.10057-0.15804-0.25346-0.30078-0.40625-0.34628-0.37062-0.77778-0.56641-1.2461-0.56641-0.038957-1e-7 -0.079267 0.001237-0.11914 0.0039062v2.7695c0 0.51336-0.38485 0.93491-0.91602 1.002-0.048168 0.006064-0.096417 0.009766-0.14453 0.009766-0.51243 0-0.94396-0.34705-1.002-0.80664-0.03125-0.24756 0.04654-0.49379 0.21875-0.69336 0.1722-0.19957 0.4186-0.32861 0.69336-0.36328 0.15767-0.019916 0.31795-0.005794 0.4668 0.039062v-2.8242c0-0.16222 0.13327-0.35156 0.51172-0.35156zm-9.4062 0.5c0.21353 0 0.38867 0.1732 0.38867 0.38672v0.38867h0.89844v-0.38867c0-0.21351 0.17308-0.38672 0.38672-0.38672 0.21351 0 0.38867 0.1732 0.38867 0.38672v0.38867h0.38867c0.21348 0 0.38672 0.17505 0.38672 0.38867-1e-7 0.21351-0.17325 0.38672-0.38672 0.38672h-0.38867v0.89844h0.38867c0.21355 0 0.38672 0.17324 0.38672 0.38672-1e-7 0.21348-0.17316 0.38867-0.38672 0.38867h-0.38867v0.38867c0 0.21364-0.17508 0.38672-0.38867 0.38672-0.21348 0-0.38672-0.17308-0.38672-0.38672v-0.38867h-0.89844v0.38867c0 0.21364-0.17514 0.38672-0.38867 0.38672-0.21361 0-0.38672-0.17308-0.38672-0.38672v-0.38867h-0.38867c-0.21353 0-0.38672-0.17519-0.38672-0.38867-1e-7 -0.21348 0.17319-0.38672 0.38672-0.38672h0.38867v-0.89844h-0.38867c-0.21353 0-0.38672-0.1732-0.38672-0.38672-1e-7 -0.21361 0.17319-0.38867 0.38672-0.38867h0.38867v-0.38867c0-0.21351 0.17311-0.38672 0.38672-0.38672zm5.0605 1c0.554 0 1 0.446 1 1s-0.446 1-1 1-1-0.446-1-1 0.446-1 1-1z" fill="currentColor"/>
</svg>
